web/ui/src/components/theme/button/svgs/off.svg

<svg height="16" viewBox="0 0 16 16" width="16" xmlns="http://www.w3.org/2000/svg"><g fill="none"><path d="m0 0h16v16h-16z" fill="#000" opacity="0"/><path d="m8.03187979 15c-.90913377 0-1.79021803-.1781968-2.62015321-.5296405-.80188568-.339894-1.52127284-.8249853-2.14001179-1.4420743-.61873895-.6187389-1.10383029-1.3381261-1.44207425-2.1400118-.35144372-.8299352-.52964054-1.71101942-.52964054-2.62015319 0-1.06588096.24254567-2.08391279.71938715-3.0293459.4537419-.90088392 1.11868003-1.70111963 1.92221568-2.31655864.29039481-.22274602.60058927-.42239245.92233353-.59398939.28049499-.15014732.63193871-.0445492.78208603.23759576.15014732.28049499.04454921.63193871-.23759575.78208603-.26729523.14189747-.52304066.30854449-.76393636.49334119-.66493813.5098409-1.21602829 1.17477903-1.59387154 1.92056571-.39434296.78208603-.59398939 1.62687095-.59398939 2.50960518 0 1.4899234.58078962 2.89074835 1.63347083 3.94342955 1.0526812 1.0526812 2.45350618 1.6334709 3.94342958 1.6334709 1.48992339 0 2.89074834-.5807897 3.94342954-1.6334709s1.6334709-2.45350615 1.6334709-3.94342955c0-.8843842-.2012964-1.73081909-.5972894-2.51455509-.3778432-.74743666-.9305833-1.41237478-1.5988214-1.92221568-.2326459-.17819682-.4801414-.33824396-.7375368-.47684148-.280495-.15179729-.3860931-.50159105-.2342959-.78208604.1517973-.28049499.5015911-.3860931.7820861-.23429581.3101944.16664702.6088391.36134354.8893341.57418974.8051856.61543901 1.4734237 1.41732469 1.9288156 2.31820861.4784914.94708308.7210371 1.96676488.7210371 3.03429581 0 .90913377-.1781968 1.79021799-.5296406 2.62015319-.3398939.8018857-.8249852 1.5212729-1.4420742 2.1400118-.618739.618739-1.3381261 1.1038303-2.1400118 1.4420743-.82993518.3514437-1.71101945.5296405-2.62015321.5296405zm0-6.18408957c-.31844432 0-.57748969-.25904537-.57748969-.57748969v-6.66093105c0-.31844432.25904537-.57748969.57748969-.57748969.31844431 0 .57748969.25904537.57748969.57748969v6.66093105c0 .31844432-.25904538.57748969-.57748969.57748969z" fill="#595959"/></g></svg>

<?xml version="1.0" encoding="UTF-8"?>
<svg width="16px" height="16px" viewBox="0 0 16 16" version="1.1" xmlns="http://www.w3.org/2000/svg" xmlns:xlink="http://www.w3.org/1999/xlink">
    <title>off</title>
    <g id="页面-1" stroke="none" stroke-width="1" fill="none" fill-rule="evenodd">
        <g id="系统设计规范" transform="translate(-731.000000, -5253.000000)" fill-rule="nonzero">
            <g id="关闭" transform="translate(731.000000, 5253.000000)">
                <rect id="矩形" fill="#000000" opacity="0" x="0" y="0" width="16" height="16"></rect>
                <path d="M8.03187979,15 C7.12274602,15 6.24166176,14.8218032 5.41172658,14.4703595 C4.6098409,14.1304655 3.89045374,13.6453742 3.27171479,13.0282852 C2.65297584,12.4095463 2.1678845,11.6901591 1.82964054,10.8882734 C1.47819682,10.0583382 1.3,9.17725398 1.3,8.26812021 C1.3,7.20223925 1.54254567,6.18420742 2.01938715,5.23877431 C2.47312905,4.33789039 3.13806718,3.53765468 3.94160283,2.92221567 C4.23199764,2.69946965 4.5421921,2.49982322 4.86393636,2.32822628 C5.14443135,2.17807896 5.49587507,2.28367708 5.64602239,2.56582204 C5.79616971,2.84631703 5.6905716,3.19776075 5.40842664,3.34790807 C5.14113141,3.48980554 4.88538598,3.65645256 4.64449028,3.84124926 C3.97955215,4.35109016 3.42846199,5.01602829 3.05061874,5.76181497 C2.65627578,6.543901 2.45662935,7.38868592 2.45662935,8.27142015 C2.45662935,9.76134355 3.03741897,11.1621685 4.09010018,12.2148497 C5.14278138,13.2675309 6.54360636,13.8483206 8.03352976,13.8483206 C9.52345315,13.8483206 10.9242781,13.2675309 11.9769593,12.2148497 C13.0296405,11.1621685 13.6104302,9.76134355 13.6104302,8.27142015 C13.6104302,7.38703595 13.4091338,6.54060106 13.0131408,5.75686506 C12.6352976,5.0094284 12.0825575,4.34449028 11.4143194,3.83464938 C11.1816735,3.65645256 10.934178,3.49640542 10.6767826,3.3578079 C10.3962876,3.20601061 10.2906895,2.85621685 10.4424867,2.57572186 C10.594284,2.29522687 10.9440778,2.18962876 11.2245728,2.34142605 C11.5347672,2.50807307 11.8334119,2.70276959 12.1139069,2.91561579 C12.9190925,3.5310548 13.5873306,4.33294048 14.0427225,5.2338244 C14.5212139,6.18090748 14.7637596,7.20058928 14.7637596,8.26812021 C14.7637596,9.17725398 14.5855628,10.0583382 14.234119,10.8882734 C13.8942251,11.6901591 13.4091338,12.4095463 12.7920448,13.0282852 C12.1733058,13.6470242 11.4539187,14.1321155 10.652033,14.4703595 C9.82209782,14.8218032 8.94101355,15 8.03187979,15 Z M8.03187979,8.81591043 C7.71343547,8.81591043 7.4543901,8.55686506 7.4543901,8.23842074 L7.4543901,1.57748969 C7.4543901,1.25904537 7.71343547,1 8.03187979,1 C8.3503241,1 8.60936948,1.25904537 8.60936948,1.57748969 L8.60936948,8.23842074 C8.60936948,8.55686506 8.3503241,8.81591043 8.03187979,8.81591043 Z" id="形状" fill="#595959"></path>
            </g>
        </g>
    </g>
</svg>
